icons/link-24.svg

<svg xmlns="http://www.w3.org/2000/svg" width="24" height="24" viewBox="0 0 24 24"><path d="M14.78 3.653a3.936 3.936 0 115.567 5.567l-3.627 3.627a3.936 3.936 0 01-5.88-.353.75.75 0 00-1.18.928 5.436 5.436 0 008.12.486l3.628-3.628a5.436 5.436 0 10-7.688-7.688l-3 3a.75.75 0 001.06 1.061l3-3z"/><path d="M7.28 11.153a3.936 3.936 0 015.88.353.75.75 0 001.18-.928 5.436 5.436 0 00-8.12-.486L2.592 13.72a5.436 5.436 0 107.688 7.688l3-3a.75.75 0 10-1.06-1.06l-3 3a3.936 3.936 0 01-5.567-5.568l3.627-3.627z"/></svg>

<svg xmlns="http://www.w3.org/2000/svg" width="24" height="24" viewBox="0 0 24 24">
  <defs/>
  <path d="M14.78,3.653 A3.936 3.936 0 1 1 20.347,9.22 L16.72,12.847 A3.936 3.936 0 0 1 10.84,12.494 A0.75 0.75 0 0 0 9.66,13.422 A5.436 5.436 0 0 0 17.78,13.908 L21.408,10.28 A5.436 5.436 0 1 0 13.72,2.592 L10.72,5.592 A0.75 0.75 0 0 0 11.78,6.653 L14.78,3.653 Z"/>
  <path d="M7.28,11.153 A3.936 3.936 0 0 1 13.16,11.506 A0.75 0.75 0 0 0 14.34,10.578 A5.436 5.436 0 0 0 6.22,10.092 L2.592,13.72 A5.436 5.436 0 1 0 10.28,21.408 L13.28,18.408 A0.75 0.75 0 1 0 12.22,17.348 L9.22,20.348 A3.936 3.936 0 0 1 3.653,14.78 L7.28,11.153 Z"/>
</svg>
